Newaita-dark/.LP/22/network-wired-acquiring.svg

<?xml version="1.0" encoding="UTF-8"?>
<svg xmlns="http://www.w3.org/2000/svg" xmlns:xlink="http://www.w3.org/1999/xlink" width="22pt" height="22pt" viewBox="0 0 22 22" version="1.1">
<g id="surface1">
<path style=" stroke:none;fill-rule:nonzero;fill:rgb(25.882354%,25.882354%,25.882354%);fill-opacity:1;" d="M 3.636719 3.355469 C 2.628906 3.355469 1.820312 4.167969 1.820312 5.175781 L 1.820312 15.179688 C 1.820312 16.1875 2.628906 17 3.636719 17 L 4.546875 17 L 4.546875 17.074219 C 4.546875 18.039062 5.359375 18.820312 6.367188 18.820312 L 15.464844 18.820312 C 16.472656 18.820312 17.28125 18.039062 17.28125 17.074219 L 17.28125 17 L 18.191406 17 C 19.199219 17 20.011719 16.1875 20.011719 15.179688 L 20.011719 5.175781 C 20.011719 4.167969 19.199219 3.355469 18.191406 3.355469 Z M 4.546875 5.175781 L 17.28125 5.175781 C 17.785156 5.175781 18.191406 5.582031 18.191406 6.085938 L 18.191406 14.269531 C 18.191406 14.773438 17.785156 15.179688 17.28125 15.179688 L 15.464844 15.179688 L 15.464844 16.089844 C 15.464844 16.59375 15.058594 17 14.554688 17 L 7.277344 17 C 6.773438 17 6.367188 16.59375 6.367188 16.089844 L 6.367188 15.179688 L 4.546875 15.179688 C 4.042969 15.179688 3.636719 14.773438 3.636719 14.269531 L 3.636719 6.085938 C 3.636719 5.582031 4.042969 5.175781 4.546875 5.175781 Z M 4.546875 5.175781 "/>
<path style=" stroke:none;fill-rule:nonzero;fill:rgb(100%,65.490198%,14.901961%);fill-opacity:1;" d="M 10.003906 5.175781 L 10.003906 6.085938 C 10.003906 6.589844 10.402344 6.992188 10.898438 6.992188 L 10.933594 6.992188 C 11.425781 6.992188 11.824219 6.589844 11.824219 6.085938 L 11.824219 5.175781 Z M 10.003906 5.175781 "/>
<path style=" stroke:none;fill-rule:nonzero;fill:rgb(100%,65.490198%,14.901961%);fill-opacity:1;" d="M 7.277344 5.175781 L 7.277344 6.085938 C 7.277344 6.589844 7.675781 6.992188 8.167969 6.992188 L 8.203125 6.992188 C 8.699219 6.992188 9.097656 6.589844 9.097656 6.085938 L 9.097656 5.175781 Z M 7.277344 5.175781 "/>
<path style=" stroke:none;fill-rule:nonzero;fill:rgb(100%,65.490198%,14.901961%);fill-opacity:1;" d="M 4.546875 5.175781 L 4.546875 6.085938 C 4.546875 6.589844 4.945312 6.992188 5.4375 6.992188 L 5.476562 6.992188 C 5.96875 6.992188 6.367188 6.589844 6.367188 6.085938 L 6.367188 5.175781 Z M 4.546875 5.175781 "/>
<path style=" stroke:none;fill-rule:nonzero;fill:rgb(100%,65.490198%,14.901961%);fill-opacity:1;" d="M 12.734375 5.175781 L 12.734375 6.085938 C 12.734375 6.589844 13.132812 6.992188 13.625 6.992188 L 13.664062 6.992188 C 14.15625 6.992188 14.554688 6.589844 14.554688 6.085938 L 14.554688 5.175781 Z M 12.734375 5.175781 "/>
<path style=" stroke:none;fill-rule:nonzero;fill:rgb(100%,65.490198%,14.901961%);fill-opacity:1;" d="M 15.464844 5.175781 L 15.464844 6.085938 C 15.464844 6.589844 15.859375 6.992188 16.355469 6.992188 L 16.390625 6.992188 C 16.882812 6.992188 17.28125 6.589844 17.28125 6.085938 L 17.28125 5.175781 Z M 15.464844 5.175781 "/>
<path style=" stroke:none;fill-rule:nonzero;fill:rgb(25.882354%,25.882354%,25.882354%);fill-opacity:1;" d="M 10.914062 9.722656 C 11.667969 9.722656 12.28125 10.332031 12.28125 11.085938 C 12.28125 11.839844 11.667969 12.453125 10.914062 12.453125 C 10.160156 12.453125 9.550781 11.839844 9.550781 11.085938 C 9.550781 10.332031 10.160156 9.722656 10.914062 9.722656 Z M 10.914062 9.722656 "/>
<path style=" stroke:none;fill-rule:nonzero;fill:rgb(25.882354%,25.882354%,25.882354%);fill-opacity:1;" d="M 15.007812 9.722656 C 15.761719 9.722656 16.371094 10.332031 16.371094 11.085938 C 16.371094 11.839844 15.761719 12.453125 15.007812 12.453125 C 14.253906 12.453125 13.644531 11.839844 13.644531 11.085938 C 13.644531 10.332031 14.253906 9.722656 15.007812 9.722656 Z M 15.007812 9.722656 "/>
<path style=" stroke:none;fill-rule:nonzero;fill:rgb(25.882354%,25.882354%,25.882354%);fill-opacity:1;" d="M 6.820312 9.722656 C 7.574219 9.722656 8.1875 10.332031 8.1875 11.085938 C 8.1875 11.839844 7.574219 12.453125 6.820312 12.453125 C 6.070312 12.453125 5.457031 11.839844 5.457031 11.085938 C 5.457031 10.332031 6.070312 9.722656 6.820312 9.722656 Z M 6.820312 9.722656 "/>
</g>
</svg>

<svg xmlns="http://www.w3.org/2000/svg" width="22pt" height="22pt" viewBox="0 0 22 22"><path d="M3.637 3.355a1.814 1.814 0 0 0-1.817 1.82V15.18c0 1.008.809 1.82 1.817 1.82h.91v.074c0 .965.812 1.746 1.82 1.746h9.098c1.008 0 1.816-.78 1.816-1.746V17h.91c1.008 0 1.82-.813 1.82-1.82V5.176c0-1.008-.812-1.82-1.82-1.82zm.91 1.82H17.28c.504 0 .91.407.91.91v8.185c0 .503-.406.91-.91.91h-1.816v.91c0 .504-.406.91-.91.91H7.277a.909.909 0 0 1-.91-.91v-.91h-1.82a.909.909 0 0 1-.91-.91V6.086c0-.504.406-.91.91-.91zm0 0" fill="#424242"/><path d="M10.004 5.176v.91c0 .504.398.906.894.906h.036c.492 0 .89-.402.89-.906v-.91zm0 0M7.277 5.176v.91c0 .504.399.906.891.906h.035a.897.897 0 0 0 .895-.906v-.91zm0 0M4.547 5.176v.91c0 .504.398.906.89.906h.04c.492 0 .89-.402.89-.906v-.91zm0 0M12.734 5.176v.91c0 .504.399.906.891.906h.04c.491 0 .89-.402.89-.906v-.91zm0 0M15.465 5.176v.91c0 .504.394.906.89.906h.036c.492 0 .89-.402.89-.906v-.91zm0 0" fill="#ffa726"/><path d="M10.914 9.723a1.365 1.365 0 1 1 .004 2.73 1.365 1.365 0 0 1-.004-2.73zm0 0M15.008 9.723a1.365 1.365 0 0 1 0 2.73 1.365 1.365 0 0 1 0-2.73zm0 0M6.82 9.723a1.365 1.365 0 1 1 .004 2.73 1.365 1.365 0 0 1-.004-2.73zm0 0" fill="#424242"/></svg>
